X:1
T:Title
%%score ( 1 2 ) { 3 | 4 }
L:1/8
Q:1/4=95
M:3/4
K:G
V:1 treble nm="Grand Piano, Unnamed-000"
V:2 treble 
V:3 bass nm="Choir Pad, He Lifted Me"
V:4 bass 
V:1
 [B,D][B,D] [B,E] [B,E]3 | [B,D][DB] [DB] [Ec]3 | [DB][CB] [CA] [CD]3 | [CA][CA] [B,G] [B,G]3 | %4
w: By~Charles~Hutchinson~Gabriel,~1905 * * *||||
 [B,D][B,D] [B,E] [B,E]3 | [B,D][DB] [DB] [Ec]3 | z6 | z A- A4 | [CD][B,D] [DG] [GB]3 | %9
w: |||||
 [Gd][Fd] [DF] [DF]3 | D[DF] [FA] [Fc]3 | [Fe][Ge] [Gd] [Gd]3 | [B,D][DG] [GB] [Gd]3 | %13
w: ||||
 [Gd][=Fe] [Fd] [Ec]3 | [Ec][EG] [^DG][=DB] [Gd][GB]- | [GB] [FA]2 G3- | G4 z2 |] %17
w: ||||
V:2
 x6 | x6 | x6 | x6 | x6 | x6 | [DB][^CB] [CA] [CA]2 [CE]- | [CE]=C DF ED | x6 | x6 | x6 | x6 | x6 | %13
 x6 | x6 | x6 | x6 |] %17
V:3
 G,G, G, G,3 | G,G, G, G,3 | G,F, F, F,3 | F,G, G, G,3 | G,G, G, G,3 | G,G, G, G,3 | %6
 G,G, G, G,2 G,- | G,F, F,A, G,F, | F,G, B, D3 | B,A, C C3 | F,A,[K:treble] D A,3 | %11
 CC B,[K:bass] B,3 | G,B, D B,3 | B,B, G, G,3 | G,G, G,G, B,[K:treble]D- | D C2 B,3- | B,4 z2 |] %17
V:4
 G,,G,, G,, G,,3 | .G,,2 z2 z2 | z D, D, D,3 | D,G,, G,, G,,3 | G,,G,, G,, G,,3 | .G,,2 z2 z2 | %6
 G,,A,, A,, A,,2 A,,- | A,,D,- D,4 | D,G,, G,, G,3 | G,D, D, D,3 | D,D, D, D,3 | D,G, G, G,3 | %12
 z G, G, G,3 | G,G, B,, C,3 | C,C, C,D, D,D,- | D, D,2 [G,,G,]3- | [G,,G,]4 z2 |] %17

